!!!COM:	Bach, Johann Sebastian
!!!OMV:	O Gott, du frommer Gott
!!!OTL:	O Gott, du frommer Gott
**kern	**fb	**kern	**kern	**kern	**kern
*part5	*part5	*part4	*part3	*part2	*part1
*staff5	*	*staff4	*staff3	*staff2	*staff1
*I"Continuo	*	*I"Voice	*I"Voice	*I"Voice	*I"Voice
*I'Cont.	*	*I'V	*I'V	*I'V	*I'V
*clefF4	*	*clefF4	*clefGv2	*clefG2	*clefG2
*Trd0c0	*	*	*	*	*
*k[f#]	*	*k[f#]	*k[f#]	*k[f#]	*k[f#]
*M4/4	*	*M4/4	*M4/4	*M4/4	*M4/4
8EL	.	8EL	8GL	4B	4e
8F#J	.	8F#J	8AJ	.	.
=2	=2	=2	=2	=2	=2
8GL	6	8GL	8BL	8eL	4b
8A	.	8A	8cJ	8f#J	.
8B	6	8B	8dL	4g	4b
8c#XJ	.	8c#XJ	8eJ	.	.
4d	.	4d	4f#	4f#	4a
4c#	#5|	4c#	4e	8g#XL	4ee
.	#6\	.	.	8a#XJ	.
=3	=3	=3	=3	=3	=3
4B	.	4B	4f#	4b	4dd
4F#	#	4F#	8f#L	4a#X	4cc#X
.	.	.	8eJ	.	.
4BB;	.	4BB;	4d;	4f#;	4b;
8BL	.	8BL	8BL	4f#	8ddL
8AJ	6 4	8AJ	8c#XJ	.	8cc#J
=4	=4	=4	=4	=4	=4
4G	.	4G	4d	8gL	8bL
.	.	.	.	8aJ	8cc#XJ
8F#L	6 4 2	8F#L	4g	4b	4dd
8EJ	.	8EJ	.	.	.
2F#	#5| 4	2F#	8c#XL	4b	8cc#L
.	.	.	8dJ	.	8bJ
.	.	.	4e	4a#X	4cc#
=5	=5	=5	=5	=5	=5
2.BB;	#5\	2.BB;	2.d#X;	2.f#;	2.b;
4F#	#	4F#	4A#X	4e	4cc#X
=6	=6	=6	=6	=6	=6
!!linebreak:original
4B	5	4B	4B	8f#L	4dd
.	6	.	.	8gJ	.
8AL	#	8AnL	4e	4a	4cc#X
8GJ	.	8GJ	.	.	.
4F#	6	4F#	4d	4a	4dd
4G	.	4G	4d	8gL	4b
.	.	.	.	8f#J	.
=7	=7	=7	=7	=7	=7
8CL	6	8CL	4c	2.e	4a
8DJ	.	8DJ	.	.	.
4E	.	4E	4B	.	4g
4AA	.	4AA	4c	.	4a
4BB	#	4BB	8BL	4d#X	4f#
.	.	.	8AJ	.	.
=8	=8	=8	=8	=8	=8
2E;	.	2E;	2G;	2B;	2e;
4G	6	4G	4B	4e	4.b
4D#X	6	4D#X	4B	4f#	.
.	5	.	.	.	8a
=9	=9	=9	=9	=9	=9
8EL	.	8EL	4B	4e	8gL
8DJ	6	8DnJ	.	.	8f#J
4C#X	#6\	4C#X	4c#X	4A#X	4e
2BB;	.	2BB;	2F#;	2B;	2d;
=10	=10	=10	=10	=10	=10
4GG	.	4GG	4G	4d	4b
4C	.	4C	8GL	8eL	4g
.	.	.	8AJ	8f#J	.
4BB	6	4BB	4B	4g	4dd
8EL	.	8EL	8BL	4g	4b
8DJ	.	8DJ	8cJ	.	.
=11	=11	=11	=11	=11	=11
!!pagebreak:original
8CL	4 2	8CL	4d	8f#	8aL
8BB	6	8BB	.	4g	8gJ
8C	6 5	8C	8eL	.	4a
8DJ	.	8DJ	8dJ	8f#	.
4GG;	.	4GG;	4d;	4g;	4b;
4AA	6	4AA	4c	8f#L	4a
.	5	.	.	8eJ	.
=12	=12	=12	=12	=12	=12
4BB	6	4BB	8BL	4d	4g
.	.	.	8AJ	.	.
4C	.	4C	4G	4c	8f#L
.	.	.	.	.	8eJ
8GL	.	8GL	8GL	4B	4d
8F#J	.	8F#J	8AJ	.	.
4E	.	4E	4B	4e	4g
=13	=13	=13	=13	=13	=13
8AAL	6 #4| 3	8AAL	4c	8d#X	8f#L
8CJ	6	8CJ	.	4e	8eJ
4BB	4	4BB	8F#L	.	4f#
.	#	.	8BJ	8d#	.
4EE;	.	4EE;	4G#X;	4B;	4e;
=||	=||	=||	=||	=||	=||
*-	*-	*-	*-	*-	*-
!!!system-decoration: s1,s2,s3,s4,s5
